X:13
M:3/4
L:1/8
Q:1/4=140
K:B_
d2B2c>B|B2 Bz:|
|:d>c|B2 B>c d>F|G2 Bz g>f|f2 f>g f>c|d2 fz d>e|f2 g2 f>e|d2 gz f>e|
d2B2c>B|B2 Bz:|

